icons/email-outline.svg

<svg xmlns="http://www.w3.org/2000/svg" width="24" height="24" viewBox="0 0 24 24">
    <path fill="#3A3A47" fill-rule="evenodd" d="M20 4c1.333 0 2 .667 2 2v12c0 1.333-.667 2-2 2H4c-1.333 0-2-.667-2-2V6c0-1.333.667-2 2-2h16zm0 2H4v12h16V6zM4 6h1.414L12 12.588 18.58 6H20v1.43l-6.585 6.576c-.472.388-.943.582-1.415.581-.472 0-.943-.194-1.413-.583L4 7.41V6z"/>
</svg>

<svg width="24" height="24" viewBox="0 0 24 24" fill="none" xmlns="http://www.w3.org/2000/svg">
<path fill-rule="evenodd" clip-rule="evenodd" d="M2 6C2 4.667 2.667 4 4 4H20C21.333 4 22 4.667 22 6V18C22 19.333 21.333 20 20 20H4C2.667 20 2 19.333 2 18V6ZM4 6V18H20V6H4ZM4 6H5.414L12 12.588L18.58 6H20V7.43L13.415 14.006C12.943 14.394 12.472 14.588 12 14.587C11.528 14.587 11.057 14.393 10.587 14.004L4 7.41V6Z" fill="#3A3A47"/>
</svg>
